X: 3
T: Wissahickon Drive
I: Wissahickon Drive	R-134	A	reel
C: Liz Carroll
R: reel
M: C|
K: A
"A"EFAB cBAB| ceef ecBA| "Bm"F2dF edde| "D"f2ef "E"ecBA|
"A"EFAB cBAB| c2ef eAce| "D"fagf "A"eAcA| "E"BEGB "A"A4 :|
|:"A"a2ga baga| "D"fAde fagf| "A"eAce aece| aedc "E"B2fg|
"A"a2ga baga| "D"fAde fagf| "A"eAce "D"aedc| "E"BEGB "A"A4 :|
%%text Roaring Jelly  R-134
%%text 05/05/99 

#include "LeftHeader.h"
%%scale .7
% ---------- set 54 ---------
% Girl I Left Behind Me (G) / Leather Away the Wattle O (D) / Reel de Montréal (G/D)
%%text Set 54
%%vskip -1cm
